64x64/apps/amd-ddm-mx.svg

<svg height="64" width="64" xmlns="http://www.w3.org/2000/svg"><path d="m4 56v2c0 1.662 1.338 3 3 3h50c1.662 0 3-1.338 3-3v-2c0 1.662-1.338 3-3 3h-50c-1.662 0-3-1.338-3-3z" opacity=".2"/><rect fill="#c2352a" height="56" rx="3" width="56" x="4" y="4"/><path d="m7 4c-1.662 0-3 1.338-3 3v1c0-1.662 1.338-3 3-3h50c1.662 0 3 1.338 3 3v-1c0-1.662-1.338-3-3-3z" fill="#f4f4f7" opacity=".1"/><path d="m14.188 15.125 9.812 9.875h16v15.938l10 9.937v-35.75zm9.812 12.187-10 9.75v13.938h14.75l9.874-10h-14.624z" opacity=".2"/><path d="m14.188 14.125 9.812 9.875h16v15.938l10 9.937v-35.75zm9.812 12.187-10 9.75v13.938h14.75l9.874-10h-14.624z" fill="#f4f4f7"/></svg>

<svg height="64" width="64" xmlns="http://www.w3.org/2000/svg">
    <path d="M4 56v2c0 1.662 1.338 3 3 3h50c1.662 0 3-1.338 3-3v-2c0 1.662-1.338 3-3 3H7c-1.662 0-3-1.338-3-3z" opacity=".2"/>
    <rect fill="#c2352a" height="56" rx="3" width="56" x="4" y="4"/>
    <path d="M7 4C5.338 4 4 5.338 4 7v1c0-1.662 1.338-3 3-3h50c1.662 0 3 1.338 3 3V7c0-1.662-1.338-3-3-3z" fill="#f4f4f7" opacity=".1"/>
    <path d="M14.188 15.125 24 25h16v15.938l10 9.937v-35.75zM24 27.312l-10 9.75V51h14.75l9.874-10H24z" opacity=".2"/>
    <path d="M14.188 14.125 24 24h16v15.938l10 9.937v-35.75zM24 26.312l-10 9.75V50h14.75l9.874-10H24z" fill="#f4f4f7"/>
</svg>
